assets/imgs/list_2.svg

<svg width="30" height="30" viewBox="0 0 30 30" fill="none" xmlns="http://www.w3.org/2000/svg">
<path d="M19.2556 23.2817C19.2556 25.2164 17.4225 27 14.8778 27C12.3331 27 10.5 25.2164 10.5 23.2817C10.5 21.3471 12.3331 19.5635 14.8778 19.5635C17.4225 19.5635 19.2556 21.3471 19.2556 23.2817Z" fill="white" stroke="#4B4B4B" stroke-width="2"/>
<path d="M15.1334 2C11.0118 2 6.07043 3.23949 6.01601 16.2573C6.01543 16.3975 5.98604 16.5413 5.92893 16.6694L4.27559 20.3785C4.10914 20.7519 4.19268 21.1928 4.56278 21.3665C7.92206 22.9432 21.5636 22.9489 25.3205 21.3835C25.7471 21.2058 25.8532 20.706 25.6448 20.2935L23.8551 16.7501C23.7646 16.5709 23.7314 16.3622 23.7557 16.1629C25.2621 3.84877 19.2433 2 15.1334 2Z" fill="white" stroke="#4B4B4B" stroke-width="2"/>
</svg>

<svg width="30" height="30" fill="none" xmlns="http://www.w3.org/2000/svg"><path d="M19.256 23.282c0 1.934-1.834 3.718-4.378 3.718-2.545 0-4.378-1.784-4.378-3.718 0-1.935 1.833-3.718 4.378-3.718 2.544 0 4.378 1.783 4.378 3.718z" fill="#fff" stroke="#4B4B4B" stroke-width="2"/><path d="M15.133 2C11.012 2 6.07 3.24 6.016 16.257c0 .14-.03.284-.087.412l-1.653 3.71c-.167.373-.083.814.287.987 3.36 1.577 17 1.583 20.758.018.426-.178.532-.678.324-1.09l-1.79-3.544a1.036 1.036 0 0 1-.1-.587C25.263 3.849 19.244 2 15.134 2z" fill="#fff" stroke="#4B4B4B" stroke-width="2"/></svg>
